svg/food/candy_fill.svg

<?xml version="1.0" encoding="UTF-8"?>
<svg width="24px" height="24px" viewBox="0 0 24 24" version="1.1" xmlns="http://www.w3.org/2000/svg" xmlns:xlink="http://www.w3.org/1999/xlink">
    <title>candy_fill</title>
    <g id="Icon" stroke="none" stroke-width="1" fill="none" fill-rule="evenodd">
        <g id="Food" transform="translate(-528.000000, -48.000000)">
            <g id="candy_fill" transform="translate(528.000000, 48.000000)">
                <path d="M24,0 L24,24 L0,24 L0,0 L24,0 Z M12.5935,23.2578 L12.5819,23.2595 L12.5109,23.295 L12.4919,23.2987 L12.4767,23.295 L12.4057,23.2595 C12.3958,23.2564 12.387,23.259 12.3821,23.2649 L12.378,23.2758 L12.3609,23.7031 L12.3659,23.7235 L12.3769,23.7357 L12.4805,23.8097 L12.4953,23.8136 L12.5071,23.8097 L12.6107,23.7357 L12.6233,23.7197 L12.6267,23.7031 L12.6096,23.2758 C12.6076,23.2657 12.601,23.2593 12.5935,23.2578 Z M12.8584,23.1453 L12.8445,23.1473 L12.6598,23.2397 L12.6499,23.2499 L12.6472,23.2611 L12.6651,23.6906 L12.6699,23.7034 L12.6784,23.7105 L12.8793,23.8032 C12.8914,23.8069 12.9022,23.803 12.9078,23.7952 L12.9118,23.7812 L12.8777,23.1665 C12.8753,23.1546 12.8674,23.147 12.8584,23.1453 Z M12.143,23.1473 C12.1332,23.1424 12.1222,23.1453 12.1156,23.1526 L12.1099,23.1665 L12.0758,23.7812 C12.0751,23.7927 12.0828,23.8019 12.0926,23.8046 L12.1083,23.8032 L12.3092,23.7105 L12.3186,23.7024 L12.3225,23.6906 L12.3404,23.2611 L12.3372,23.2485 L12.3278,23.2397 L12.143,23.1473 Z" id="MingCute" fill-rule="nonzero"></path>
                <path d="M17.5218,3.37945 L20.6203,6.47797 C21.4088,7.26644 21.0919,8.60904 20.034,8.96165 L17.4838,9.81172 C18.0139,11.5267 17.6002,13.4707 16.2427,14.8282 L14.8284,16.2424 C13.4709,17.6 11.5269,18.0137 9.81196,17.4836 L8.9619,20.0338 C8.60928,21.0916 7.26669,21.4086 6.47821,20.6201 L3.37969,17.5216 C2.59122,16.7331 2.90816,15.3905 3.96601,15.0379 L6.51621,14.1878 C5.98611,12.4729 6.39983,10.5289 7.75738,9.17135 L9.17159,7.75714 C10.5291,6.39959 12.4731,5.98587 14.1881,6.51597 L15.0381,3.96577 C15.3908,2.90792 16.7334,2.59098 17.5218,3.37945 Z M7.48729,15.9723 L5.36597,16.6794 L7.32036,18.6338 L8.02747,16.5125 L7.48729,15.9723 Z M16.6797,5.36573 L15.9726,7.48705 L16.5128,8.02723 L18.6341,7.32012 L16.6797,5.36573 Z" id="形状结合" fill="#09244B"></path>
            </g>
        </g>
    </g>
</svg>

<svg xmlns="http://www.w3.org/2000/svg" width="24" height="24"><g fill="none" fill-rule="evenodd"><path d="M24 0v24H0V0h24ZM12.594 23.258l-.012.002-.071.035-.02.004-.014-.004-.071-.036c-.01-.003-.019 0-.024.006l-.004.01-.017.428.005.02.01.013.104.074.015.004.012-.004.104-.074.012-.016.004-.017-.017-.427c-.002-.01-.009-.017-.016-.018Zm.264-.113-.014.002-.184.093-.01.01-.003.011.018.43.005.012.008.008.201.092c.012.004.023 0 .029-.008l.004-.014-.034-.614c-.003-.012-.01-.02-.02-.022Zm-.715.002a.023.023 0 0 0-.027.006l-.006.014-.034.614c0 .012.007.02.017.024l.015-.002.201-.093.01-.008.003-.011.018-.43-.003-.012-.01-.01-.184-.092Z"/><path fill="#09244B" d="m17.522 3.38 3.098 3.098a1.5 1.5 0 0 1-.586 2.484l-2.55.85a5 5 0 0 1-1.241 5.016l-1.415 1.414a5 5 0 0 1-5.016 1.242l-.85 2.55a1.5 1.5 0 0 1-2.484.586L3.38 17.522a1.5 1.5 0 0 1 .586-2.484l2.55-.85A5 5 0 0 1 7.757 9.17l1.415-1.414a5 5 0 0 1 5.016-1.241l.85-2.55a1.5 1.5 0 0 1 2.484-.587ZM7.487 15.971l-2.121.707 1.954 1.955.707-2.122-.54-.54ZM16.68 5.366l-.707 2.121.54.54 2.121-.707-1.954-1.954Z"/></g></svg>
